img/icon/test-base-white.svg

<svg width="24" height="24" viewBox="0 0 24 24" fill="none" xmlns="http://www.w3.org/2000/svg">
<path d="M10.8997 13.1004V15.2831C10.8997 15.8903 11.3917 16.3834 12.0001 16.3834H17.0711C17.8222 16.3834 18.3526 15.6467 18.1138 14.9339L17.4995 13.1004L18.1162 11.2488C18.3538 10.5361 17.8234 9.80048 17.0723 9.80048H13.098M6.50426 21.5276V13.104M19.7782 4.22183C24.0739 8.5176 24.0739 15.4824 19.7782 19.7782C15.4824 24.0739 8.5176 24.0739 4.22183 19.7782C-0.0739422 15.4824 -0.0739422 8.5176 4.22183 4.22183C8.5176 -0.0739423 15.4824 -0.0739423 19.7782 4.22183ZM12.0001 13.1004H6.50066V8.70012C6.50066 8.09294 6.99264 7.59976 7.60102 7.59976H12.0001C12.6072 7.59976 13.1004 8.09174 13.1004 8.70012V12C13.1004 12.6072 12.6072 13.1004 12.0001 13.1004Z" stroke="white" stroke-width="1.5" stroke-linecap="round" stroke-linejoin="round"/>
</svg>

<svg width="24" height="24" fill="none" xmlns="http://www.w3.org/2000/svg"><path d="M10.9 13.1v2.183a1.1 1.1 0 0 0 1.1 1.1h5.071a1.1 1.1 0 0 0 1.043-1.45L17.5 13.1l.616-1.851A1.1 1.1 0 0 0 17.072 9.8h-3.974M6.504 21.528v-8.424m13.274-8.882c4.296 4.296 4.296 11.26 0 15.556-4.296 4.296-11.26 4.296-15.556 0-4.296-4.296-4.296-11.26 0-15.556 4.296-4.296 11.26-4.296 15.556 0zM12 13.1H6.5V8.7a1.1 1.1 0 0 1 1.101-1.1h4.4a1.1 1.1 0 0 1 1.1 1.1V12c0 .607-.494 1.1-1.1 1.1z" stroke="#fff" stroke-width="1.5" stroke-linecap="round" stroke-linejoin="round"/></svg>
